src/assets/rainy.svg

<svg xmlns="http://www.w3.org/2000/svg" width="28" height="28" viewBox="0 0 28 28" fill="none">
<path d="M5.83301 19.8331H20.9997C23.577 19.8331 25.6663 17.7438 25.6663 15.1665C25.6663 12.9776 24.1594 11.1407 22.1264 10.6367C22.1528 10.4003 22.1663 10.1599 22.1663 9.91645C22.1663 6.37263 19.2935 3.49979 15.7497 3.49979C12.8103 3.49979 10.3326 5.47616 9.57284 8.17251C9.4934 8.16849 9.41344 8.16645 9.33301 8.16645C6.75568 8.16645 4.66634 10.2558 4.66634 12.8331C4.66634 12.8994 4.66772 12.9653 4.67045 13.0308C3.30891 13.5101 2.33301 14.8077 2.33301 16.3331C2.33301 18.2661 3.90001 19.8331 5.83301 19.8331Z" fill="white" fill-opacity="0.6"/>
<path d="M8.65003 20.9998C8.35359 20.9998 8.0826 21.1673 7.95003 21.4324L6.39932 24.5338C6.13914 25.0542 6.51753 25.6665 7.09932 25.6665C7.39576 25.6665 7.66675 25.499 7.79932 25.2338L9.35003 22.1324C9.61021 21.612 9.23182 20.9998 8.65003 20.9998Z" fill="white" fill-opacity="0.6"/>
<path d="M12.15 20.9998C12.7318 20.9998 13.1102 21.612 12.85 22.1324L11.2993 25.2338C11.1667 25.499 10.8958 25.6665 10.5993 25.6665C10.0175 25.6665 9.63914 25.0542 9.89932 24.5338L11.45 21.4324C11.5826 21.1673 11.8536 20.9998 12.15 20.9998Z" fill="white" fill-opacity="0.6"/>
<path d="M19.15 20.9998C19.7318 20.9998 20.1102 21.612 19.85 22.1324L18.2993 25.2338C18.1667 25.499 17.8958 25.6665 17.5993 25.6665C17.0175 25.6665 16.6391 25.0542 16.8993 24.5338L18.45 21.4324C18.5826 21.1673 18.8536 20.9998 19.15 20.9998Z" fill="white" fill-opacity="0.6"/>
<path d="M15.65 20.9998C16.2318 20.9998 16.6102 21.612 16.35 22.1324L14.7993 25.2338C14.6667 25.499 14.3958 25.6665 14.0993 25.6665C13.5175 25.6665 13.1391 25.0542 13.3993 24.5338L14.95 21.4324C15.0826 21.1673 15.3536 20.9998 15.65 20.9998Z" fill="white" fill-opacity="0.6"/>
</svg>

<svg xmlns="http://www.w3.org/2000/svg" width="28" height="28" fill="none"><path fill="#fff" fill-opacity=".6" d="M5.833 19.833H21a4.667 4.667 0 0 0 1.126-9.196q.04-.356.04-.72A6.417 6.417 0 0 0 9.573 8.172 4.667 4.667 0 0 0 4.67 13.03a3.502 3.502 0 0 0 1.162 6.802M8.65 21a.78.78 0 0 0-.7.432L6.4 24.534a.783.783 0 1 0 1.4.7l1.55-3.102A.783.783 0 0 0 8.65 21M12.15 21c.582 0 .96.612.7 1.132l-1.55 3.102a.783.783 0 1 1-1.4-.7l1.55-3.102a.78.78 0 0 1 .7-.432M19.15 21c.582 0 .96.612.7 1.132l-1.55 3.102a.783.783 0 1 1-1.4-.7l1.55-3.102a.78.78 0 0 1 .7-.432M15.65 21c.582 0 .96.612.7 1.132l-1.55 3.102a.783.783 0 1 1-1.4-.7l1.55-3.102a.78.78 0 0 1 .7-.432"/></svg>
